symbols/web/production_quantity_limits/materialsymbolsrounded/production_quantity_limits_wght600grad200_24px.svg

<svg xmlns="http://www.w3.org/2000/svg" height="24" width="24"><path d="M6.775 22.55q-.925 0-1.575-.662-.65-.663-.65-1.588t.65-1.575q.65-.65 1.575-.65.925 0 1.575.662Q9 19.4 9 20.3q0 .925-.65 1.588-.65.662-1.575.662Zm10.35 0q-.925 0-1.575-.662-.65-.663-.65-1.588t.662-1.575q.663-.65 1.563-.65.925 0 1.575.662.65.663.65 1.563 0 .925-.65 1.588-.65.662-1.575.662ZM12 9.55q-.65 0-1.1-.45-.45-.45-.45-1.1 0-.65.45-1.1.45-.45 1.1-.45.65 0 1.1.45.45.45.45 1.1 0 .65-.45 1.1-.45.45-1.1.45Zm-1.325-3.9V.475h2.65V5.65Zm-3.9 11.825q-1.4 0-2.113-1.187-.712-1.188-.037-2.413l1.275-2.3L2.375 4.15h-.75q-.575 0-1-.425Q.2 3.3.2 2.725q0-.6.425-1.013.425-.412 1-.412H3.2q.45 0 .825.225.375.225.55.65l3.9 8.175h7.05l3.45-6.275q.2-.35.538-.55.337-.2.737-.2.825 0 1.238.712.412.713.012 1.413l-3.575 6.45q-.325.6-.875.95t-1.25.35H8.25l-.8 1.425h10.7q.575 0 1 .412.425.413.425 1.013 0 .6-.425 1.012-.425.413-1 .413Z"/></svg>

<svg xmlns="http://www.w3.org/2000/svg" height="24" width="24"><path d="M6.775 22.55Q5.85 22.55 5.2 21.888Q4.55 21.225 4.55 20.3Q4.55 19.375 5.2 18.725Q5.85 18.075 6.775 18.075Q7.7 18.075 8.35 18.737Q9 19.4 9 20.3Q9 21.225 8.35 21.888Q7.7 22.55 6.775 22.55ZM17.125 22.55Q16.2 22.55 15.55 21.888Q14.9 21.225 14.9 20.3Q14.9 19.375 15.562 18.725Q16.225 18.075 17.125 18.075Q18.05 18.075 18.7 18.737Q19.35 19.4 19.35 20.3Q19.35 21.225 18.7 21.888Q18.05 22.55 17.125 22.55ZM12 9.55Q11.35 9.55 10.9 9.1Q10.45 8.65 10.45 8Q10.45 7.35 10.9 6.9Q11.35 6.45 12 6.45Q12.65 6.45 13.1 6.9Q13.55 7.35 13.55 8Q13.55 8.65 13.1 9.1Q12.65 9.55 12 9.55ZM10.675 5.65V0.475H13.325V5.65ZM6.775 17.475Q5.375 17.475 4.662 16.288Q3.95 15.1 4.625 13.875L5.9 11.575L2.375 4.15H1.625Q1.05 4.15 0.625 3.725Q0.2 3.3 0.2 2.725Q0.2 2.125 0.625 1.712Q1.05 1.3 1.625 1.3H3.2Q3.65 1.3 4.025 1.525Q4.4 1.75 4.575 2.175L8.475 10.35H15.525L18.975 4.075Q19.175 3.725 19.513 3.525Q19.85 3.325 20.25 3.325Q21.075 3.325 21.488 4.037Q21.9 4.75 21.5 5.45L17.925 11.9Q17.6 12.5 17.05 12.85Q16.5 13.2 15.8 13.2H8.25L7.45 14.625Q7.45 14.625 7.45 14.625Q7.45 14.625 7.45 14.625H18.15Q18.725 14.625 19.15 15.037Q19.575 15.45 19.575 16.05Q19.575 16.65 19.15 17.062Q18.725 17.475 18.15 17.475Z"/></svg>
